**kern	**kern	**dynam
*part1	*part1	*part1
*staff2	*staff1	*
*I"Piano	*	*
*clefF4	*clefG2	*
*k[b-]	*k[b-]	*
=1	=1	=1
!	!LO:TX:b:i:t=a tempo	!
4.FF~ 4.C	8r	.
.	8c':L 8f: 8a:	.
.	8A':J 8c: 8f:	.
=	=	=
*	*^	*
4.D	8r	8ryy	.
.	(16fLL	4Bn 4f	.
.	16gJ	.	.
.	8aJ)	.	???
*	*v	*v	*
=	=	=
4.FF 4.C	8r	.
.	8c:L 8f: 8a:	.
.	8A:J 8c: 8f:	.
=	=	=
*	*^	*
4.D-X	8r	8ryy	.
.	16fLL	4B- 4f	.
.	16aJ	.	.
.	8gJ	.	.
*	*v	*v	*
=	=	=
!	!LO:TX:b:i:t=dolce marcato.	!
(4C^^	8r	.
.	4A 4f 4a	.
8Dn^^	.	.
=	=	=
*	*^	*
4AA^^	8r	8ryy	.
.	(8eL	4B- 4e	.
8GG^^	8ccJ)	.	.
*	*v	*v	*
=	=	=
!	!LO:TX:b:i:t=poco rit.	!
8.FF^^L	8ryy	.
.	8c':L 8f: 8a:	.
16GG^^K	.	.
8AA^^J	8A':J 8d: 8f:	.
=	=	=
*	*^	*
4.C^^	8r	8ryy	.
.	16dLL	4G 4B- 4d	.
.	16fJ	.	.
.	8eJ	.	.
*	*v	*v	*
=	=	=
*-	*-	*-
!!!system-decoration: {(s1,s2)}
